X:450
%%etbk:tnset id:141,pos:1,rep:3x,ant:
%%etbk:pldat 2014-09-04T18:00,2014-09-03T18:10,2014-09-02T18:05,2014-09-01T18:03,2014-08-31T11:59,2014-08-28T18:05,2014-08-27T18:10,2014-08-26T15:27,2014-08-24T10:47,2014-08-09T16:42,2014-08-06T18:09,2014-08-04T17:57,2014-08-03T14:19,2014-08-02T16:13,2014-07-26T14:43,2014-07-23T18:02,2014-07-20T11:31,2014-07-13T14:05,2014-05-19T18:36,2014-04-06T15:18,2013-11-07T15:21,2013-10-08T15:24,2013-10-04T15:52,2013-09-12T18:00,2013-08-26T18:45,2013-05-20T15:27,2013-05-07T18:14,2013-05-05T14:26
T: Belgarth Waltz, The
Z: Piano Box Version by Martin Fleischmann
H: Created 2013-02-19 /  Last Modified 2013-02-19
R: waltz
M: 3/4
L: 1/4
K: Gmaj
!1!D/ !2!G/!3!A/ | "G"!4!B>cB | !3!A!1!G!3!F | "C"!2!E<!4!G!1!C | "G"!1!D>D !2!G/!3!A/ | !4!B>A!2!G | !5!dcB | "D"!2!!3!A3 | -A2 !2!G/A/ |
"G"!4!B>cB | !3!A!1!G!3!F | "C"!2!E<!4!G!1!C | "G"!1!D2D | "C"!1!E<!2!G!5!c | "D"!3!A!1!G!2!F | "G"!1!G2-G | -G>G !2!B/c/ |
"G"!4!d2d | "C"!5!e2e | "G"!2!B<!4!d !2!B/!1!A/ | !1!G>G !2!B/c/ | !4!d>Bd | "C"!5!e>d c/B/ | "D"!1!!5!A3 | -A2 G/F/ |
"C"!2!E<!4!G G/E/ | "G"!1!D<!4!G G/!1!D/ | "C"!1!C<!4!G-G/!1!C/ | "G"!1!B,>B, !2!G/A/ | !4!B>cB | "D"!3!A!1!G!2!F | "G"!1!G2-G | -G3 ||


